public/assets/img/out.svg

<svg width="20" height="20" viewBox="0 0 20 20" fill="none" xmlns="http://www.w3.org/2000/svg">
<path d="M15.2148 4.87956C15.2148 4.42383 14.8698 4.07227 14.4141 4.07227L5.98307 4.07227C5.52083 4.07227 5.17578 4.42383 5.17578 4.87956C5.17578 5.3418 5.52083 5.69336 5.98307 5.69336L10.026 5.69336C9.85677 5.72591 9.70052 5.81706 9.57682 5.94076L5.55339 9.87305C5.37109 10.0488 5.28646 10.2572 5.28646 10.472C5.28646 10.9538 5.625 11.2923 6.08073 11.2923C6.32812 11.2923 6.52995 11.1882 6.6862 11.0319L7.91667 9.82096L9.4401 8.14128L9.35547 9.48893L9.35547 15.0684C9.35547 15.5827 9.69401 15.9277 10.1953 15.9277C10.6901 15.9277 11.0286 15.5827 11.0286 15.0684L11.0286 9.48893L10.9505 8.13477L12.4674 9.82096L13.6979 11.0319C13.8542 11.1882 14.056 11.2923 14.3034 11.2923C14.7591 11.2923 15.0977 10.9538 15.0977 10.472C15.0977 10.2572 15.013 10.0488 14.8307 9.87305L10.8138 5.94076C10.6901 5.81706 10.5339 5.72591 10.3581 5.69336L14.4141 5.69336C14.8698 5.69336 15.2148 5.3418 15.2148 4.87956Z" fill="white"/>
</svg>

<svg width="20" height="20" fill="none" xmlns="http://www.w3.org/2000/svg"><path d="M15.215 4.88a.79.79 0 0 0-.8-.808H5.982a.791.791 0 0 0-.807.808c0 .462.345.813.807.813h4.043a.88.88 0 0 0-.45.248L5.554 9.873a.819.819 0 0 0-.267.599c0 .482.339.82.795.82a.84.84 0 0 0 .605-.26l1.23-1.211 1.524-1.68-.085 1.348v5.58c0 .514.339.859.84.859.495 0 .834-.345.834-.86v-5.58l-.079-1.353 1.517 1.686 1.23 1.21a.84.84 0 0 0 .606.261c.456 0 .795-.338.795-.82a.819.819 0 0 0-.267-.599l-4.017-3.932a.874.874 0 0 0-.456-.248h4.056c.456 0 .8-.351.8-.813Z" fill="#000" fill-opacity=".4"/></svg>
